resources/profiles/Snapmaker/Snapmaker A350_texture.svg

<?xml version="1.0" encoding="utf-8"?>
<svg viewBox="0 0 334 364" xmlns="http://www.w3.org/2000/svg" author="https://github.com/macdylan/3dp-configs">
  <path d="M263.21164,337.68513 C263.21364,336.51637 263.23044,334.62942 263.24784,333.49191 L263.27954,331.42372 L263.42749,330.9919 C263.77557,329.97595 264.4337,329.21735 265.37439,328.74779 C266.46204,328.20487 267.85415,328.23682 268.90587,328.82889 C269.8221,329.34464 270.51398,330.26377 270.75653,331.2874 C270.83823,331.63223 270.85023,331.79288 270.83283,332.31013 C270.81483,332.84767 270.79433,332.97656 270.66791,333.34945 C270.23901,334.61452 269.23575,335.55221 267.95715,335.88305 C267.48004,336.00651 266.56977,335.99851 266.10911,335.86675 C265.65064,335.73568 265.29978,335.57757 264.97417,335.35532 C264.82786,335.25542 264.6977,335.17373 264.68492,335.17373 C264.67212,335.17373 264.66162,336.21692 264.66162,337.49193 L264.66162,339.81013 L263.93435,339.81013 L263.20707,339.81013 L263.21164,337.68513 Z M267.57866,334.4715 C268.87102,334.19759 269.69167,332.88417 269.36298,331.61573 C269.15569,330.81576 268.59249,330.20794 267.81014,329.93986 C267.42172,329.80677 266.72961,329.79505 266.34349,329.91506 C265.36146,330.22017 264.70527,331.13175 264.707783,332.18736 C264.71179,333.71047 266.06987,334.79131 267.57866,334.47154 L267.57866,334.4715 Z M258.12988,335.99129 C257.27474,335.87355 256.56641,335.53378 255.96448,334.95262 C254.8796,333.90519 254.50272,332.36312 254.98198,330.93261 C255.18673,330.32151 255.42899,329.94155 255.92956,329.44644 C256.63088,328.75278 257.37614,328.42026 258.34344,328.36943 C259.19169,328.32483 259.94636,328.51293 260.57269,328.92499 L260.93436,329.16294 L260.93436,328.86669 L260.93436,328.57043 L261.14525,328.59933 C261.26124,328.61523 261.59875,328.62823 261.89526,328.62823 L262.43437,328.62823 L262.43437,332.28735 L262.43437,335.94646 L261.68437,335.94646 L260.93436,335.94646 L260.93436,335.56414 L260.93436,335.18181 L260.62754,335.38775 C260.23426,335.65173 259.94053,335.78053 259.47074,335.895 C259.01129,336.00696 258.50679,336.04318 258.12988,335.9913 L258.12988,335.99129 Z M259.34562,334.40925 C259.7714,334.26078 259.98924,334.12727 260.27987,333.83664 C261.01193,333.10459 261.16062,331.98608 260.65306,331.02935 C260.28646,330.33833 259.39483,329.81112 258.59344,329.81154 C258.26902,329.81167 257.7726,329.92608 257.48059,330.06796 C257.16868,330.21949 256.66833,330.71012 256.5129,331.01685 C256.14467,331.74353 256.14448,332.60355 256.51244,333.3296 C256.76697,333.83189 257.43899,334.3352 258.03723,334.4716 C258.4018,334.5547 259.01188,334.5256 259.34567,334.4093 L259.34562,334.40925 Z M287.66457,335.9904 C286.06831,335.77062 284.78514,334.59564 284.40631,333.00686 C284.29628,332.54542 284.30691,331.74957 284.42961,331.26604 C284.74343,330.02909 285.65275,329.01408 286.83179,328.58469 C287.87676,328.20411 289.11135,328.30898 290.04759,328.85785 C290.43282,329.08369 290.69091,329.29072 291.03628,329.65098 L291.29774,329.92371 L291.2982,329.25325 L291.29867,328.58279 L291.63958,328.58279 L291.98049,328.58279 L291.98049,332.28736 L291.98049,335.99193 L291.63957,335.99193 L291.29866,335.99193 L291.29786,335.20784 L291.29706,334.42374 L291.08226,334.67084 C290.77264,335.02702 290.25816,335.41979 289.82992,335.62692 C289.19686,335.93312 288.31963,336.08045 287.66564,335.9904 L287.66457,335.9904 Z M289.10885,335.16195 C290.81449,334.55757 291.70105,332.68813 291.07143,331.02355 C290.65214,329.91498 289.53157,329.1182 288.29817,329.05163 C287.72739,329.02083 287.30683,329.11123 286.75611,329.38314 C286.02841,329.74242 285.39765,330.46584 285.15522,331.21917 C285.02049,331.63782 284.99049,332.3759 285.09002,332.82326 C285.34349,333.96256 286.30303,334.96034 287.41382,335.23969 C287.84938,335.34922 288.68902,335.31069 289.10884,335.16199 L289.10885,335.16195 Z M306.70723,335.99951 C306.64563,335.97891 306.64723,332.01814 306.70923,331.63801 C306.99256,329.89204 308.4154,328.51087 310.07312,328.37262 L310.43492,328.34252 L310.43539,328.51951 C310.43585,328.61691 310.44849,328.77321 310.46409,328.86695 L310.49229,329.03741 L310.31589,329.03811 C310.00029,329.04011 309.51029,329.1683 309.17268,329.33858 C308.5271,329.66417 307.82532,330.38675 307.61467,330.94277 C307.40445,331.49765 307.38947,331.69465 307.38947,333.90396 C307.38947,335.05233 307.37417,335.99284 307.35537,335.99398 C307.12305,336.00808 306.74285,336.01138 306.70749,335.99998 L306.70723,335.99951 Z M241.3206,335.92501 C240.59149,335.80874 239.38877,335.40532 239.38877,335.27703 C239.38877,335.18463 239.79212,334.25972 239.87186,334.16926 C239.93026,334.10296 239.96836,334.10806 240.29907,334.22506 C240.77686,334.39413 241.76776,334.53711 242.45697,334.53642 C243.35156,334.53562 243.93819,334.359 244.2711,333.99051 C244.45842,333.78317 244.47772,333.63525 244.3423,333.445 C244.15135,333.17684 243.74772,333.05374 242.47975,332.87692 C241.21687,332.70083 240.37649,332.37598 239.81676,331.84755 C239.39735,331.45159 239.21612,330.94037 239.30224,330.39618 C239.44959,329.46522 240.19268,328.79851 241.4574,328.46257 C241.8677,328.35358 241.99277,328.34163 242.75248,328.33877 C243.38007,328.33677 243.7087,328.35667 244.04794,328.41837 C244.77066,328.54987 245.70704,328.87281 245.70704,328.99056 C245.70704,329.10211 245.23304,330.17384 245.18371,330.17384 C245.15261,330.17384 245.05134,330.14214 244.95859,330.10344 C244.68042,329.98722 243.99491,329.86058 243.34948,329.80619 C242.68528,329.75029 241.9631,329.79819 241.5298,329.92674 C241.07121,330.06293 240.83975,330.40472 240.99839,330.71149 C241.17466,331.05237 241.67089,331.24923 242.85599,331.44846 C243.92059,331.62743 244.24765,331.70274 244.62215,331.85514 C245.06195,332.03411 245.33645,332.20617 245.57826,332.45444 C246.28005,333.17494 246.22663,334.23835 245.44985,335.01097 C245.04355,335.41508 244.27106,335.78741 243.5553,335.92409 C243.11634,336.00789 241.84346,336.00849 241.32065,335.92489 L241.3206,335.92501 Z M246.63885,334.07153 C246.67025,331.61574 246.67265,331.5834 246.86463,331.00967 C247.35708,329.538 248.34433,328.69184 249.88342,328.4223 C251.80729,328.08537 253.57792,329.21974 254.13642,331.14702 L254.2525,331.54759 L254.2525,333.7698 L254.2525,335.992 L253.54795,335.992 L252.8434,335.992 L252.8426,333.91244 C252.8418,331.88058 252.8396,331.82604 252.7398,331.53479 C252.3888,330.5052 251.45685,329.81014 250.42735,329.81014 C249.7797,329.81014 249.35548,329.97856 248.89898,330.41691 C248.4933,330.80646 248.28447,331.1389 248.16326,331.58809 C248.06325,331.95872 248.06207,331.99605 248.08716,333.9783 L248.11266,335.992 L247.36365,335.992 L246.61464,335.992 L246.63885,334.07153 Z M272.14485,333.48061 C272.17155,330.83265 272.18345,330.67667 272.39734,330.1772 C272.53781,329.84917 272.8737,329.37868 273.14333,329.13226 C273.67005,328.65086 274.2928,328.40686 275.09365,328.3681 C275.68552,328.3395 276.10972,328.4335 276.6367,328.71027 C277.01365,328.90824 277.52071,329.36882 277.74345,329.71558 C277.87714,329.92372 277.90952,329.95081 277.95216,329.89023 C278.44673,329.18776 278.74313,328.91671 279.30426,328.6537 C280.93377,327.88994 282.86999,328.6587 283.43788,330.29489 C283.65331,330.91557 283.66179,331.04011 283.66179,333.58586 L283.66179,335.99203 L283.29815,335.99203 L282.9345,335.99203 L282.9345,333.50023 C282.9345,330.77801 282.9365,330.80976 282.66145,330.26469 C282.21755,329.38718 281.1347,328.88749 280.13372,329.09824 C279.30602,329.27251 278.71241,329.79886 278.38535,330.64852 L278.26189,330.96923 L278.24449,333.43279 C278.23449,334.78774 278.21069,335.91275 278.19059,335.9328 C278.17059,335.9528 278.01778,335.9693 277.85109,335.9693 L277.54804,335.9693 L277.52524,333.42382 C277.50304,330.93895 277.50014,330.87204 277.40236,330.61324 C277.24926,330.20797 277.10071,329.98412 276.80024,329.70593 C276.04606,329.0077 274.98809,328.84588 274.10389,329.29352 C273.80986,329.44238 273.26995,329.9817 273.10547,330.29084 C272.84855,330.77374 272.84339,330.83751 272.84339,333.52429 L272.84339,335.99203 L272.4814,335.99203 L272.11942,335.99203 L272.14485,333.48061 Z M293.11639,330.24196 L293.11639,324.49192 L293.4573,324.49192 L293.79821,324.49192 L293.79821,328.33286 C293.79821,330.44537 293.81361,332.17314 293.83231,332.17234 C293.85111,332.17164 294.73572,331.31285 295.79822,330.26414 L297.73005,328.35741 L298.23006,328.35941 L298.73007,328.36141 L296.79823,330.26907 L294.8664,332.17672 L296.77341,334.05527 L298.68042,335.93382 L298.2385,335.96632 L297.79657,335.99882 L297.55877,335.7932 C297.42798,335.68011 296.6666,334.93262 295.86682,334.1321 L294.41267,332.67663 L294.12817,332.9586 L293.84367,333.24058 L293.84367,333.90098 C293.84367,334.26421 293.83017,334.88355 293.81387,335.2773 L293.78417,335.99322 L293.45037,335.99322 L293.11657,335.99322 L293.11657,330.24318 L293.11639,330.24196 Z M301.45735,335.92637 C301.02064,335.82393 300.66243,335.68449 300.3325,335.48848 C299.47498,334.97904 298.93418,334.30728 298.61115,333.35031 C298.34092,332.54976 298.38104,331.53398 298.71457,330.73196 C299.1629,329.6539 300.16094,328.77067 301.27553,328.46564 C301.67944,328.35509 302.51345,328.33018 302.96374,328.41524 C303.83523,328.5798 304.64209,329.05073 305.19154,329.71553 C305.4226,329.9951 305.75187,330.55769 305.70642,330.59526 C305.69452,330.60526 305.38806,330.78309 305.02556,330.99068 C304.39755,331.35032 302.87032,332.22948 300.76417,333.4438 C300.20524,333.76604 299.79826,334.02852 299.79826,334.06674 C299.79826,334.10304 299.94655,334.2803 300.1278,334.4606 C300.69244,335.02226 301.34636,335.28085 302.20736,335.28297 C303.45492,335.28597 304.49276,334.66849 304.99481,333.62437 C305.10795,333.38908 305.23412,333.07384 305.2752,332.92384 L305.3499,332.65111 L305.71565,332.45822 L306.08141,332.26534 L306.05071,332.52641 C305.99491,333.00087 305.88429,333.37273 305.66187,333.83293 C305.18688,334.81579 304.32684,335.54405 303.26397,335.86343 C302.86056,335.98464 301.85505,336.0197 301.45733,335.92643 L301.45735,335.92637 Z M300.46244,332.80368 C301.03465,332.47512 302.05508,331.88846 302.73008,331.5 C303.40509,331.11152 304.12866,330.69667 304.33802,330.57809 C304.54738,330.45951 304.73816,330.343 304.76197,330.31918 C304.81747,330.26368 304.19286,329.70892 303.8203,329.4826 C302.95091,328.95447 301.80791,328.89388 300.90727,329.32817 C300.10724,329.71394 299.51949,330.405 299.24411,331.28364 C299.12931,331.64997 299.08761,332.35905 299.15921,332.72785 C299.21061,332.99251 299.35857,333.40107 299.40307,333.40107 C299.41357,333.40107 299.89025,333.13225 300.46245,332.80368 L300.46244,332.80368 Z" id="path24" fill-rule="nonzero" style="fill: rgb(209, 209, 211);"/>
</svg>

<svg xmlns="http://www.w3.org/2000/svg" viewBox="0 0 334 364"><path d="M263.212 337.685c.002-1.169.018-3.056.036-4.193l.032-2.068.147-.432c.349-1.016 1.007-1.775 1.947-2.244 1.088-.543 2.48-.511 3.532.08a3.9 3.9 0 0 1 1.85 2.46c.082.344.094.505.077 1.022-.018.538-.039.667-.165 1.04a3.87 3.87 0 0 1-2.71 2.533c-.478.124-1.388.116-1.849-.016a3.8 3.8 0 0 1-1.135-.512 2.5 2.5 0 0 0-.29-.181c-.012 0-.022 1.043-.022 2.318v2.318h-1.455zm4.367-3.214c1.292-.273 2.113-1.587 1.784-2.855a2.37 2.37 0 0 0-1.553-1.676c-.388-.133-1.08-.145-1.467-.025-.982.305-1.638 1.217-1.635 2.272.004 1.523 1.362 2.604 2.87 2.285m-9.45 1.52c-.854-.117-1.563-.457-2.165-1.038a3.85 3.85 0 0 1-.982-4.02c.205-.611.447-.991.948-1.487.7-.693 1.446-1.026 2.413-1.077.849-.044 1.603.144 2.23.556l.361.238v-.593l.211.03c.116.015.454.028.75.028h.54v7.318h-1.5v-.764l-.307.206a3.2 3.2 0 0 1-1.157.507c-.46.112-.964.148-1.341.096m1.217-1.582c.425-.148.643-.282.934-.572.732-.732.88-1.85.373-2.808-.367-.69-1.258-1.218-2.06-1.217-.324 0-.82.114-1.112.256-.312.151-.813.642-.968.949a2.56 2.56 0 0 0 0 2.313c.254.502.926 1.005 1.524 1.142.365.083.975.054 1.309-.063m28.319 1.581c-1.597-.22-2.88-1.394-3.259-2.983-.11-.462-.1-1.257.024-1.741a3.87 3.87 0 0 1 2.402-2.681c1.045-.38 2.28-.276 3.216.273.385.226.643.433.988.793l.262.273v-1.341h.682v7.409h-.681l-.001-.784v-.784l-.216.247a4.4 4.4 0 0 1-1.252.956c-.633.306-1.51.453-2.164.363zm1.444-.828c1.705-.604 2.592-2.474 1.962-4.138-.419-1.109-1.54-1.906-2.773-1.972-.57-.031-.991.06-1.542.331-.728.36-1.358 1.083-1.6 1.836-.136.419-.166 1.157-.066 1.604.253 1.14 1.213 2.137 2.324 2.417.435.11 1.275.07 1.695-.078m17.598.838c-.061-.021-.06-3.982.002-4.362.284-1.746 1.706-3.127 3.364-3.265l.362-.03v.177c0 .097.013.253.03.347l.027.17-.176.001c-.316.002-.806.13-1.143.3-.646.326-1.348 1.049-1.558 1.605-.21.555-.226.752-.226 2.961 0 1.148-.015 2.089-.034 2.09a6 6 0 0 1-.648.006m-65.386-.075c-.73-.116-1.932-.52-1.932-.648 0-.092.403-1.017.483-1.108.058-.066.096-.06.427.056.478.17 1.469.312 2.158.311.895 0 1.481-.177 1.814-.545.187-.208.207-.356.071-.546-.19-.268-.594-.391-1.862-.568-1.263-.176-2.104-.501-2.663-1.03-.42-.395-.6-.907-.515-1.45.148-.932.89-1.598 2.155-1.934.41-.11.536-.121 1.295-.124.628-.002.957.018 1.296.08.723.13 1.659.454 1.659.572 0 .111-.474 1.183-.523 1.183a1 1 0 0 1-.225-.07c-.279-.117-.964-.243-1.61-.298-.664-.056-1.386-.008-1.82.12-.458.137-.69.479-.53.785.176.341.672.538 1.857.737 1.065.18 1.392.255 1.766.407.44.18.714.351.956.6.702.72.649 1.783-.128 2.556-.406.404-1.179.776-1.895.913-.439.084-1.712.084-2.234 0zm5.318-1.853c.031-2.456.034-2.489.226-3.062.492-1.472 1.48-2.318 3.018-2.588 1.924-.337 3.695.798 4.253 2.725l.117.4v4.445h-1.41v-2.08c-.001-2.031-.003-2.086-.103-2.377-.351-1.03-1.283-1.725-2.313-1.725-.647 0-1.072.169-1.528.607-.406.39-.615.722-.736 1.171-.1.37-.1.408-.076 2.39l.026 2.014h-1.498zm25.506-.591c.027-2.648.038-2.804.252-3.304a3.6 3.6 0 0 1 .746-1.045c.527-.481 1.15-.725 1.95-.764a2.73 2.73 0 0 1 1.544.342c.377.198.884.659 1.106 1.006.134.208.167.235.21.174.494-.702.79-.973 1.351-1.236 1.63-.764 3.566.005 4.134 1.64.215.622.224.746.224 3.292v2.406h-.727V333.5c0-2.722.002-2.69-.274-3.235-.443-.878-1.526-1.378-2.527-1.167-.828.175-1.422.7-1.749 1.55l-.123.321-.018 2.464c-.01 1.355-.033 2.48-.053 2.5s-.173.036-.34.036h-.303l-.023-2.545c-.022-2.485-.025-2.552-.123-2.81-.153-.406-.301-.63-.602-.908-.754-.698-1.812-.86-2.696-.412-.294.148-.834.688-.999.997-.256.483-.262.547-.262 3.233v2.468h-.724zm20.971-3.239v-5.75h.682v3.84c0 2.113.016 3.841.034 3.84.02 0 .904-.86 1.966-1.908l1.932-1.907.5.002.5.002-1.932 1.908-1.932 1.908 1.907 1.878 1.907 1.879-.442.032-.441.033-.238-.206c-.131-.113-.892-.86-1.692-1.66l-1.454-1.456-.285.282-.284.282v.66c0 .363-.014.983-.03 1.376l-.03.716h-.667v-5.751m8.341 5.684a3.9 3.9 0 0 1-1.125-.438c-.857-.509-1.398-1.18-1.72-2.138-.271-.8-.231-1.816.103-2.618.448-1.078 1.446-1.961 2.56-2.266.404-.11 1.238-.136 1.689-.05a3.84 3.84 0 0 1 2.228 1.3c.23.28.56.842.514.88-.011.01-.318.187-.68.395-.628.36-2.156 1.238-4.262 2.453-.559.322-.966.585-.966.623 0 .036.149.213.33.394.564.561 1.218.82 2.08.822 1.247.003 2.285-.615 2.787-1.659.113-.235.24-.55.28-.7l.075-.273.366-.193.365-.193-.03.261a3.8 3.8 0 0 1-.39 1.307 3.88 3.88 0 0 1-2.397 2.03c-.403.122-1.409.157-1.807.063m-.995-3.122 2.268-1.304 1.608-.922c.21-.118.4-.235.424-.259.055-.055-.57-.61-.942-.836-.87-.529-2.012-.59-2.913-.155-.8.386-1.388 1.077-1.663 1.956-.115.366-.156 1.075-.085 1.444.052.265.2.673.244.673.01 0 .487-.269 1.06-.597" style="fill:#d1d1d3"/></svg>
